img/spotify.svg

<?xml version="1.0" encoding="UTF-8"?>
<svg width="20px" height="20px" viewBox="0 0 20 20" version="1.1" xmlns="http://www.w3.org/2000/svg" xmlns:xlink="http://www.w3.org/1999/xlink">
    <!-- Generator: Sketch 55.2 (78181) - https://sketchapp.com -->
    <title>icons8-spotify_filled</title>
    <desc>Created with Sketch.</desc>
    <g id="Homepage" stroke="none" stroke-width="1" fill="none" fill-rule="evenodd">
        <g id="Tablet---All-Nav-Options" transform="translate(-510.000000, -70.000000)" fill="#031268" fill-rule="nonzero">
            <g id="icons8-spotify_filled" transform="translate(510.000000, 70.000000)">
                <path d="M10,0 C4.48607067,0 0,4.48607067 0,10 C0,15.5139293 4.48607067,20 10,20 C15.5139293,20 20,15.5143639 20,10 C20,4.48563606 15.5139293,0 10,0 Z M14.2326916,14.4947629 C14.1070885,14.6833848 13.900213,14.7850841 13.6894259,14.7850841 C13.5651267,14.7850841 13.4395237,14.7498805 13.3282629,14.6755617 C12.253466,13.9588857 10.430701,13.4808119 8.90955713,13.4812465 C7.29540615,13.4821157 6.08544483,13.8784823 6.07327567,13.8823938 C5.73253944,13.9980008 5.36268417,13.8119866 5.24881568,13.4703812 C5.13494719,13.1287757 5.31965753,12.759355 5.66126298,12.6459212 C5.71863184,12.6267982 7.08635751,12.1787127 8.90955713,12.1778421 C10.430701,12.1769742 12.5463949,12.5872485 14.0518927,13.5907688 C14.3517754,13.7906906 14.4326133,14.1953149 14.2326916,14.4947629 Z M15.5330523,11.8262419 C15.3918032,12.0531097 15.1479856,12.1778435 14.8989526,12.1778435 C14.7642227,12.1778435 14.6277544,12.1417706 14.5051936,12.0648442 C12.556391,10.8505367 10.5536964,10.5936807 8.82828458,10.6088922 C6.88035117,10.6262767 5.32269981,10.9978704 5.29618845,11.0056934 C4.90199487,11.1178235 4.48737451,10.8874788 4.37480986,10.4915468 C4.26224521,10.0947455 4.49302447,9.68229823 4.88939111,9.5701682 C5.00977878,9.5358338 6.56438785,9.15337477 8.69268547,9.13555565 C10.6332305,9.11947499 13.0514147,9.4006693 15.2948846,10.7983832 C15.6438785,11.0156895 15.7512278,11.4763788 15.5330523,11.8262419 Z M16.8303707,8.70572385 C16.6682602,8.9812682 16.3779391,9.13468643 16.0797949,9.13468643 C15.9302881,9.13468643 15.779043,9.09600591 15.6404016,9.01516798 C13.3691164,7.6817767 10.6075883,7.39884393 8.69094702,7.39623626 C8.68182016,7.39623626 8.67269329,7.39623626 8.66356643,7.39623626 C6.34577774,7.39623626 4.56082403,7.80390282 4.54300491,7.80824895 C4.07449259,7.91559824 3.60815333,7.62614629 3.4995002,7.15850319 C3.39084706,6.69129471 3.68073363,6.22452084 4.14794211,6.11543309 C4.22834543,6.09674475 6.13542527,5.65778608 8.66356643,5.65778608 C8.67356252,5.65778608 8.68355861,5.65778608 8.6935547,5.65778608 C10.8253292,5.66082837 13.9136859,5.98504933 16.5209266,7.5157547 C16.9346777,7.75913773 17.0733191,8.29197271 16.8303707,8.70572385 Z" id="Shape"></path>
            </g>
        </g>
    </g>
</svg>

<svg width="20" height="20" xmlns="http://www.w3.org/2000/svg"><path d="M10 0C4.486 0 0 4.486 0 10s4.486 10 10 10 10-4.486 10-10S15.514 0 10 0zm4.233 14.495a.651.651 0 01-.905.18c-1.075-.716-2.897-1.194-4.418-1.194-1.615.001-2.825.397-2.837.401a.65.65 0 11-.412-1.236c.058-.02 1.425-.467 3.249-.468 1.52-.001 3.636.41 5.142 1.413.3.2.38.604.18.904zm1.3-2.669a.746.746 0 01-1.028.239c-1.949-1.214-3.951-1.471-5.677-1.456a17.256 17.256 0 00-3.532.397.746.746 0 11-.407-1.436c.12-.034 1.675-.417 3.804-.434 1.94-.017 4.358.265 6.602 1.662a.746.746 0 01.238 1.028zm1.297-3.12a.87.87 0 01-1.19.31c-2.27-1.334-5.032-1.617-6.95-1.62h-.026c-2.318 0-4.103.408-4.121.412a.87.87 0 01-.395-1.693c.08-.018 1.987-.457 4.516-.457h.03c2.131.003 5.22.327 7.827 1.858a.87.87 0 01.31 1.19z" fill="#031268" fill-rule="nonzero"/></svg>
